symbols/web/padding/materialsymbolssharp/padding_wght500_20px.svg

<svg xmlns="http://www.w3.org/2000/svg" height="20" width="20"><path d="M5.854 7.625h1.834V5.792H5.854Zm3.229 0h1.834V5.792H9.083Zm3.229 0h1.834V5.792h-1.834ZM2.333 17.667V2.333h15.334v15.334Zm1.979-1.979h11.376V4.312H4.312Zm0 0V4.312v11.376Z"/></svg>

<svg xmlns="http://www.w3.org/2000/svg" height="20" width="20"><path d="M5.854 7.625H7.688V5.792H5.854ZM9.083 7.625H10.917V5.792H9.083ZM12.312 7.625H14.146V5.792H12.312ZM2.333 17.667V2.333H17.667V17.667ZM4.312 15.688H15.688V4.312H4.312ZM4.312 15.688V4.312V15.688Z"/></svg>
